!!!COM:	L van Beethoven
!!!OTL:	String Quartet Op18 No3
**kern	**dynam
*I"Violin I	*
*clefG2	*
*k[f#c#]	*
*D:	*
*M2/2	*
=1	=1
!LO:TX:a:B:t=Allegro	!
(1a	p
=2	=2
[1gg)	.
=3!|:	=3!|:
(8ggL	.
8ff#	.
8ee	.
8dd	.
8cc#L	.
8dd	.
8ff#	.
8dd)	.
=4	=4
1cc#	.
=5	=5
(8eeL	.
8dd	.
8cc#	.
8dd	.
8eeL	.
8dd	.
8ff#	.
8dd)	.
=6	=6
1b	.
=7	=7
[1a	.
=8	=8
(4a	.
8b	.
8a)	.
(8aL	.
8g	.
8f#	.
8g)	.
=9	=9
(1e#	.
=10	=10
4f#)	.
4r	.
2r	.
=11	=11
1r	.
=12	=12
1r	.
=13	=13
1r	.
=14	=14
1r	.
=15	=15
!LO:TX:t=p cresc.	!
(1aa	<
=16	=16
[1ccc)	f
=17	=17
8cccL	p
(8bb	.
8aa#	.
8bb	.
8eeeL	.
8bb	.
8aa	.
8gg	.
=18	=18
8ff#L	.
8gg	.
8bb	.
8gg	.
8ff#L	.
8ee	.
8dd#	.
8ee)	.
=19	=19
(8ggL	.
8ee	.
8cc	.
8b	.
8a#L	.
8b	.
8ee	.
8b	.
=20	=20
8aL	.
8g	.
8f#	.
8e	.
8d#L	.
8e	.
8f#	.
8e)	.
=21	=21
(8gL	.
8f#	.
8dd	.
8cc)	.
(8eL	.
8f#	.
8g	.
8f#)	.
=22	=22
(8aL	.
8g	.
8ee	.
8dd)	.
(8f##L	.
8g#	.
8a	.
8g#)	.
=23	=23
!LO:TX:t=cresc.	!
(8eeL	<
8dd#	.
8ff#	.
8ee	.
8ggL	.
8ff#	.
8aa	.
8gg)	.
=24	=24
(8eeL	.
8dd#	.
8ff#	.
8ee	.
8cc#L	.
8b#	.
8dd	.
8cc#)	.
=25	=25
(8aL	.
8g#	.
8b	.
8a	.
8gL	.
8f#	.
8a	.
8f#)	.
=26	=26
(8f#L	p
8e	.
8g	.
8e	.
8dL	.
8c#	.
8e	.
8c#)	.
=27	=27
4d	.
4r	.
2r	.
=28	=28
(1dd	<
=29	=29
[1gg)	>
=30	=30
(8ggL	]
8ff#)	.
8ee	.
8dd	.
8cc#L	.
8b	.
8a	.
8g	.
=31	=31
(4e#	.
4f#)	.
2r	.
=32	=32
(1ddd	<
=33	=33
[1ggg)	>
=34	=34
(8gggL	]
8fff#)	.
8eee	.
8ddd	.
8ccc#L	.
8bb	.
8aa	.
8gg	.
=35	=35
(4ee#	.
4ff#)	.
4r	.
(12aa	.
12ff#	.
12dd)	.
=36	=36
2.a	.
(12a	.
12dd	.
12ff#)	.
=37	=37
[2aa	.
8aaL	.
8bb	.
8ccc#	.
8ddd	.
=38	=38
(8aa#L	.
8bb)	.
8r	.
8bb	.
(8cc#L	.
8aa)	.
8r	.
8aa	.
=39	=39
(4gg	.
4ff#)	.
4r	.
(12ff#	.
12dd	.
12b)	.
=40	=40
2.f#	.
(12f#	.
12b	.
12dd)	.
=41	=41
[2ff#	.
8ff#L	.
8gg#	.
8aa#	.
8bb	.
=42	=42
(8ff#L	.
8gg)	.
8r	.
8gg	.
(8a#L	.
8ff#)	.
8r	.
8ff#	.
=43	=43
(4ee	.
4dd)	.
4r	.
4c	.
=44	=44
4r	.
4B	.
4r	.
4B	.
=45	=45
4r	.
4c	.
4d#	.
4dd#	sf
=46	=46
4r	.
4dd#	sf
4r	.
4dd#	sf
=47	=47
4ee	.
4r	.
(12cccL	.
12aa	.
12bb	.
12cccL	sf
12bb	.
12aa)	.
=48	=48
(12cccL	.
12aa	.
12bb	.
12cccL	sf
12bb	.
12aa)	.
(12cccL	.
12aa	.
12bb	.
12cccL	sf
12bb	.
12aa)	.
=49	=49
(4gg#	.
8ee)	.
8r	.
4dd#	.
4ddd#	sf
=50	=50
4r	.
4ddd#	sf
4r	.
4ddd#	sf
=51	=51
2.eee	f
8r	.
(16ee	p
16ff#)	.
=52	=52
2.gg#	.
8r	.
(16gg#	.
16aa)	.
=53	=53
2.bb	.
8r	.
(16bb	.
16ccc#)	.
=54	=54
4ddd	.
4ddd	.
4ddd	.
4ddd	.
=55	=55
!LO:TX:t=cresc.	!
2ddd	<
2ccc#	.
=56	=56
2bb	.
2ee	.
=57	=57
8aaL	[
(8eee	p
8ddd#	.
8eee	.
8dddL	.
8ccc#	.
8bb	.
8aa)	.
=58	=58
8gg#L	.
8eee	.
8ddd	.
8ccc#	.
8bbL	.
8aa	.
8gg#	.
8ff#	.
=59	=59
!LO:TX:t=sempre stacc.	!
8eeL	.
8eee	.
8ddd	.
8ccc#	.
8bbL	.
8aa	.
8gg#	.
8ff#	.
=60	=60
8eeL	.
8eee	.
8ddd	.
8ccc#	.
8bbL	.
8aa	.
8gg#	.
8ff#	.
=61	=61
!LO:TX:t=decresc	!
8eeL	>
8eee	.
8ddd	.
8ccc#	.
8bbL	.
8aa	.
8gg#	.
8ff#	.
=62	=62
8ee#L	.
8eee	.
8ddd	.
8ccc#	.
8bbL	.
8aa	.
8gg#	.
8ff#	.
=63	=63
8ee#L	.
8eee	.
8ddd	.
8ccc#	.
8bbL	.
8aa	.
8gg#	.
8ff#	]
=64	=64
4ff	pp
(8ddd	.
8ccc	.
8bbL	.
8aa	.
8gg	.
8ff#)	.
=65	=65
4ff	.
(8ddd	.
8ccc	.
8bbL	.
8aa	.
8gg	.
8ff#)	.
=66	=66
(8ffL	.
8gg	.
8ff	.
8ee	.
!LO:TX:t=cresc.	!
8ffL	<
8gg	.
8ff	.
8ee	.
=67	=67
8ffL	.
8gg	.
8aa	.
8gg	.
8bbL	.
8aa	.
8gg	.
8ff)	[
=68	=68
4ee	p
(2ee	sf
8ff	.
8ee)	.
=69	=69
4dd	.
[4gg	sf
8ggL	.
(8ff	.
8ee	.
8dd)	.
=70	=70
4cc	.
(4cc	.
4dd)	.
(4dd	.
=71	=71
4ee)	.
(4ee	.
4dd)	.
(4dd	.
=72	=72
4cc)	.
(2cc	sf
8dd	.
8cc)	.
=73	=73
4b	.
[4ee	sf
8eeL	.
(8dd	.
8cc	.
8b)	.
=74	=74
4a	.
(4a	.
4b)	.
(4b	.
=75	=75
4cc)	.
(4cc	.
4b)	.
4b	.
=76	=76
2eee	f
4ccc#	.
4aa	.
=77	=77
2ee	.
2dd	.
=78	=78
1cc#	sf
=79	=79
1cc	sf
=80	=80
(2.b	.
8cc#	.
8dd)	.
=81	=81
8eeL	.
8ff#	.
8gg#	.
8aa	.
8bbL	.
8ccc#	.
8ddd	.
8ddd#	.
=82	=82
4eee	ff
4eee	.
4ccc#	.
4aa	.
=83	=83
2ee	.
2dd	.
=84	=84
1cc#	sf
=85	=85
1gg	sf
=86	=86
1ff#	sf
=87	=87
1aa	sf
=88	=88
4.ccc#	sf
8bb	.
8aaL	.
8gg#	.
8ff#	.
8ee	.
=89	=89
8ddL	.
8cc#	.
8b	.
8a	.
4g#	.
4e	.
=90	=90
4a	.
4r	.
2r	.
=91	=91
1r	.
=92	=92
1r	.
=93	=93
1r	.
=94	=94
!LO:TX:t=p cresc.	!
qqa	<
[1aa	.
=95	=95
[1aa	.
=96	=96
4aa	.
(4gg#	.
4ddd	.
4bb	.
=97	=97
4aa	.
4gg#	.
4ff#	.
4ee)	.
=98	=98
4aa	[
4r	.
2r	.
=99	=99
4r	.
(12ddd	p
12ccc#	.
12bb	.
12aaL	.
12gg#	.
12ff#	.
12eeL	.
12ff#	.
12gg#)	.
=100	=100
4aa	.
4r	.
2r	.
=101	=101
4r	.
(12ddd	.
12ccc#	.
12bb	.
12aaL	.
12gg#	.
12ff#	.
12eeL	.
12ff#	.
12gg#)	.
=102	=102
!LO:TX:t=cresc.	!
(12aaL	<
12bb	.
12ccc#	.
12dddL	.
12ccc#	.
12bb	.
12aaL	.
12gg#	.
12ff#	.
12eeL	.
12ff#	.
12gg#)	.
=103	=103
(12aaL	.
12bb	.
12ccc#	.
12dddL	.
12ccc#	.
12bb	.
12aaL	.
12gg#	.
12ff#	.
12eeL	.
12ff#	.
12gg#)	[
=104	=104
4aa	f
4r	.
2r	.
=105	=105
4G 4g	f
4r	.
2r	.
=106	=106
4gg	f
4r	.
2r	.
=107	=107
4G 4g	f
4r	.
2r	.
=108	=108
(1a	p
=109	=109
1gg)	.
=110:|!	=110:|!
(1a	p
=111	=111
[1gg)	.
=112	=112
8ggL	.
(8ff	.
8ee	.
8dd	.
8cc#L	.
8dd	.
8ff	.
8dd)	.
=113	=113
4cc#	.
4r	.
2r	.
=114	=114
(8eeL	.
8dd	.
8cc#	.
8dd	.
8eeL	.
8dd	.
8ff	.
8dd)	.
=115	=115
4b-	p
4r	.
2r	.
=116	=116
[1a	.
=117	=117
4a	.
(8b-	.
8a)	.
(8aL	.
8g	.
8f#	.
8g)	.
=118	=118
!LO:TX:t=cresc.	!
[1f	<
=119	=119
4f	.
(8g	.
8f)	.
(8fL	.
8e-	.
8d	.
8e-)	.
=120	=120
[1d	.
=121	=121
4d	.
(8e-	.
8d)	.
(8c#L	.
8d	.
8e-	.
8d)	.
=122	=122
[1c	f
=123	=123
4c	.
(8d	.
8e-	.
4f	.
8g	.
8a)	.
=124	=124
4b-	.
4r	.
4r	.
(12ff	p
12dd	.
12b-)	.
=125	=125
2.f	.
(12f	.
12b-	.
12dd)	.
=126	=126
[2ff	.
8ffL	.
8gg	.
8aa	.
8bb	.
=127	=127
(8ff#L	.
8gg)	.
8r	.
8gg	.
(8aL	.
8ff)	.
8r	.
8ff	.
=128	=128
(4ee-	.
4dd)	.
2r	.
=129	=129
4r	.
(12ccc	.
12aa	.
12ee-)	.
4dd	.
4r	.
=130	=130
4r	.
(12cc	.
12a	.
12e-)	.
4d	.
4r	.
=131	=131
4r	.
(12aa	.
12ff#	.
12cc)	.
4b-	.
4r	.
=132	=132
4r	.
(12a	.
12f#	.
12c)	.
4B-	.
4B-	.
=133	=133
4r	.
4A	.
4r	.
4A	.
=134	=134
4r	.
4B-	.
!LO:TX:t=cresc.	!
8ddL	<
8ee	.
8ff#	.
8gg	.
=135	=135
(8aL	.
8ee-)	.
8r	.
8ee-	.
(8f#L	.
8dd)	.
8r	.
8dd	[
=136	=136
4g	f
4r	.
2r	.
=137	=137
1ddd	sf
=138	=138
2.fff	sf
(12aa	.
12gg#)	.
12bb	.
=139	=139
12dddL	.
12bb	.
12gg#	.
12dddL	.
12bb	.
12gg#	.
12dddL	.
12bb	.
12gg#	.
12dddL	.
12bb	.
12gg#	.
=140	=140
4aa	.
4r	.
2r	.
=141	=141
1eee	sf
=142	=142
2.ggg	sf
(12bb	.
12aa#	.
12ccc#)	.
=143	=143
12eeeL	.
12ccc#	.
12aa#	.
12eeeL	.
12ccc#	.
12aa#	.
12eeeL	.
12ccc#	.
12aa#	.
12eeeL	.
12ccc#	.
12aa#	.
=144	=144
1bb	f
=145	=145
1ddd	f
=146	=146
1gg	f
=147	=147
1bb	f
=148	=148
1ee#	f
=149	=149
1ff#	f
=150	=150
1aa	f
=151	=151
1b#	f
=152	=152
4cc#	.
4r	.
[2ccc#	sf
=153	=153
[2ccc#	.
(12ccc#L	.
12ddd	.
12ccc#	.
12bb#L	.
12ccc#	.
12bb#)	.
=154	=154
4ccc#	.
4r	.
[2ccc#	sf
=155	=155
[2ccc#	.
12ccc#L	.
12ddd	.
12ccc#	.
12bb#L	.
12ccc#	.
12bb#	.
=156	=156
12ccc#L	ff
12ccc#	.
12ccc#	.
12ccc#L	.
12ccc#	.
12ccc#	.
12ccc#L	.
12ccc#	.
12ccc#	.
12ccc#L	.
12ccc#	.
12ccc#	.
=157	=157
12eee#L	.
12eee#	.
12eee#	.
12eee#L	.
12eee#	.
12eee#	.
12ggg#L	.
12ggg#	.
12ggg#	.
12ggg#L	.
12ggg#	.
12ggg#	.
=158	=158
4cccc#	.
4r	.
2r	.
=159	=159
1r	.
=160	=160
1r	.
=161	=161
1r	.
=162	=162
(1a	p
=163	=163
[1gg)	.
=164	=164
(8ggL	.
8ff#	.
8ee	.
8dd	.
8cc#L	.
8dd	.
8ff#	.
8dd)	.
=165	=165
(8cc#L	.
8b	.
8a#	.
8b	.
8cc#L	.
8b	.
8dd	.
8b)	.
=166	=166
[1a	.
=167	=167
4a	.
(8b	.
8a)	.
(8aL	.
8g	.
8f#	.
8g)	.
=168	=168
(qqf#	.
qqg)	.
qqa)	.
1g	.
=169	=169
4f#	.
4r	.
2r	.
=170	=170
1r	.
=171	=171
1r	.
=172	=172
1r	.
=173	=173
1r	.
=174	=174
!LO:TX:t=cresc.	!
1dd	<
=175	=175
(1ff	sf
=176	=176
8ffL)	p
8ee	.
8dd#	.
8ee	.
8dd#L	.
8ee	.
8ff#	.
8ee)	.
=177	=177
(1gg	sf
=178	=178
8ggL)	p
8ff#	.
8ee#	.
8ff#	.
8ee#L	.
8ff#	.
8gg	.
8ff#)	.
=179	=179
(1aa	sf
=180	=180
8aaL)	p
8gg	.
8ff#	.
8gg	.
!LO:TX:t=cresc.	!
8ff#L	<
8gg	.
8aa	.
8gg)	.
=181	=181
(8ggL	.
8ff#	.
8ee#	.
8ff#	.
8ee#L	.
8ff#	.
8gg	.
8ff#)	.
=182	=182
(8ff#L	.
8ee	.
8dd#	.
8ee	.
8dd#L	.
8ee	.
8ff#	.
8ee)	.
=183	=183
(8eeL	.
8dd	.
8cc#	.
8dd	.
8cc#L	.
8dd	.
8ee	.
8dd)	.
=184	=184
2.cc#	p
8r	.
(16a	.
16b)	.
=185	=185
2.cc#	.
8r	.
(16cc#	.
16dd)	.
=186	=186
2.ee	.
8r	.
(16ee	.
16ff#)	.
=187	=187
4gg	.
4gg	.
4gg	.
4gg	.
=188	=188
!LO:TX:t=cresc.	!
2gg	<
2ff#	.
=189	=189
2ee	.
2a	.
=190	=190
8ddL	p
(8aa	.
8gg#	.
8aa	.
8ggL	.
8ff#	.
8ee	.
8dd)	.
=191	=191
8cc#L	.
8aa	.
8gg	.
8ff#	.
8eeL	.
8dd	.
8cc#	.
8b	.
=192	=192
!LO:TX:t=sempre stacc.	!
8aL	.
8aa	.
8gg	.
8ff#	.
8eeL	.
8dd	.
8cc#	.
8b	.
=193	=193
8aL	.
8aa	.
8gg	.
8ff#	.
8eeL	.
8dd	.
8cc#	.
8b	.
=194	=194
8aL	.
8aa	.
8gg	.
8ff#	.
8eeL	.
8dd	.
8cc#	.
8b	.
=195	=195
8a#L	.
8aa	.
8gg	.
8ff#	.
8eeL	.
8dd	.
8cc#	.
8b	.
=196	=196
8a#L	.
8aa	.
8gg	.
8ff#	.
8eeL	.
8dd	.
8cc#	.
8b	.
=197	=197
4b-	.
(8gg	.
8ff	.
8eeL	.
8dd	.
8cc	.
8b)	.
=198	=198
4b-	.
(8gg	.
8ff	.
8eeL	.
8dd	.
8cc	.
8b)	.
=199	=199
!LO:TX:t=cresc.	!
(8b-L	<
8cc	.
8b-	.
8a	.
8b-L	.
8cc	.
8b-	.
8a)	.
=200	=200
8b-L	.
8cc	.
8dd	.
8cc	.
8eeL	.
8dd	.
8cc	.
8b-	.
=201	=201
4a	p
(2a	sf
8b-	.
8a)	.
=202	=202
4g	.
[4cc	sf
8ccL	.
(8b-	.
8a	.
8g)	.
=203	=203
4f	.
(4f	.
4g)	.
(4g	.
=204	=204
4a)	.
(4a	.
4g)	.
(4g	.
=205	=205
4f)	.
(2f	sf
8g	.
8f)	.
=206	=206
4e	.
[4a	sf
8aL	.
(8g	.
8f	.
8e)	.
=207	=207
4d	.
(4dd	.
4ee)	.
(4ee	.
=208	=208
4ff)	.
(4ff	.
4ee)	.
4ee	.
=209	=209
2aa	f
4ff#	.
4dd	.
=210	=210
2a	.
2g	.
=211	=211
1f#	sf
=212	=212
1f	sf
=213	=213
4e	.
!LO:TX:t=cresc.	!
8f#	<
8g	.
8aL	.
8b	.
8cc#	.
8dd	.
=214	=214
8eeL	.
8ff#	.
8gg	.
8aa	.
8bbL	.
8ccc#	.
8ddd	.
8eee	[
=215	=215
4fff#	ff
4fff#	.
4ddd	.
4aa	.
=216	=216
2ff#	.
2ee	.
=217	=217
1dd#	sf
=218	=218
1ccc	sf
=219	=219
1bb	sf
=220	=220
1ddd	sf
=221	=221
4.fff#	sf
8eee	.
8dddL	.
8ccc#	.
8bb	.
8aa	.
=222	=222
8ggL	.
8ff#	.
8ee	.
8dd	.
4cc#	.
4a	.
=223	=223
4dd	.
4r	.
2r	.
=224	=224
1r	.
=225	=225
1r	.
=226	=226
1r	.
=227	=227
!LO:TX:t=p  cresc.	!
qqdd	<
[1ddd	.
=228	=228
[1ddd	.
=229	=229
4ddd	.
(4ccc#	.
4ggg	.
4eee	.
=230	=230
4ddd	.
4ccc#	.
4bb	.
4aa)	.
=231	=231
4ddd	[
4r	.
2r	.
=232	=232
4r	.
(12ggg	p
12fff#	.
12eee	.
12dddL	.
12ccc#	.
12bb	.
12aaL	.
12bb	.
12ccc#)	.
=233	=233
4fff#	.
4r	.
2r	.
=234	=234
4r	.
(12ggg	.
12fff#	.
12eee	.
12dddL	.
12ccc#	.
12bb	.
12aaL	.
12bb	.
12ccc#)	.
=235	=235
!LO:TX:t=cresc.	!
(12dddL	<
12eee	.
12fff#	.
12gggL	.
12fff#	.
12eee	.
12dddL	.
12ccc#	.
12bb	.
12aaL	.
12bb	.
12ccc#)	.
=236	=236
(12dddL	.
12eee	.
12fff#	.
12gggL	.
12fff#	.
12eee	.
12dddL	.
12ccc#	.
12bb	.
12aaL	.
12bb)	.
12ccc#	[
=237	=237
4ddd	f
4r	.
2r	.
=238	=238
4cc	f
4r	.
2r	.
=239	=239
4ccc	f
4r	.
2r	.
=240	=240
4cc	f
4r	.
2r	.
=241	=241
(1dd	p
=242	=242
[1ccc)	.
=243	=243
8cccL	.
(8bb-	.
8aa	.
8gg	.
8ff#L	.
8gg	.
8bb-	.
8gg)	.
=244	=244
1ff#	.
=245	=245
(8aaL	.
8gg	.
8ff#	.
8gg	.
8aaL	.
8gg	.
8bb-	.
8gg)	.
=246	=246
!LO:TX:t=cresc.	!
(1ee-	<
=247	=247
1dd	.
=248	=248
1f#)	.
=249	=249
4g	pp
(2g	.
8a-	.
8g)	.
=250	=250
4f	.
[4b-	.
8b-L	.
(8a-	.
8g	.
8f)	.
=251	=251
4e-	.
(4ee-	.
4ff)	.
(4ff	.
=252	=252
4gg)	.
(4gg	.
4ff)	.
4ff	.
=253	=253
4gg	.
2gg	.
(8gg	.
8ff#)	.
=254	=254
4gg	.
2gg	.
(8gg	.
8ff#)	.
=255	=255
!LO:TX:t=cresc.	!
4gg	<
(4gg	.
4ff#)	.
(4ff#	.
=256	=256
4ee)	.
(4ee	.
4a)	.
4a	.
=257	=257
4dd	[
4r	.
2r	.
=258	=258
1r	.
=259	=259
1r	.
=260	=260
1r	.
=261	=261
!LO:TX:t=cresc.	!
(1aa	p
=262	=262
[1ggg)	.
=263	=263
8gggL	.
(8fff#	.
8eee	.
8ddd	.
8ccc#L	.
8ddd	.
8fff#	.
8ddd)	.
=264	=264
(8ccc#L	f
8bb	.
8aa#	.
8bb	.
8ccc#L	.
8bb	.
8ddd	.
8bb)	.
=265	=265
8aaL	p
(8a	.
8g#	.
8a	.
8cc#L	.
8b	.
8dd	.
8cc#	.
=266	=266
!LO:TX:t=cresc.	!
8eeL	<
8dd	.
8ff#	.
8ee	.
8ggL	.
8ff#	.
8aa	.
8gg	.
=267	=267
8bbL	.
8aa	.
8ccc#	.
8bb	.
8dddL	.
8ccc#	.
8eee	.
8ddd)	.
=268	=268
(8fff#L	.
8eee	.
2ggg	.
4ccc#)	.
=269	=269
4ddd	f
4r	.
2r	.
=270	=270
4a 4ee 4ccc#	ff
4r	.
2r	.
=271	=271
4d 4ff# 4ddd	.
4ryy	.
2r	.
=272	=272
*k[b-e-]	*
*B-:	*
*M2/4	*
!LO:TX:a:B:t=Andante con moto	!
(4B-	p
8cL	.
8B-)	.
=273	=273
(4A	.
8G#L	.
8A)	.
=274	=274
4B-	.
(8B-L	.
8B-)	.
=275	=275
8B-L	.
8r	.
4r	.
=276	=276
(8b-L	.
8dd	.
8ee-	.
8dd)	.
=277	=277
(8ccL	.
8ee-	.
8ff	.
8ee-)	.
=278	=278
(8ddL	.
8ff	.
8gg	.
8ff)	.
=279	=279
(16ffLL	.
16ee	.
16dd	.
16cc)	.
(8.ffL	.
16ee-)	.
=280	=280
(16ee-LL	.
16dd	.
16cc	.
16b-)	.
(8.ee-L	.
16cc)	.
=281	=281
!LO:TX:t=cresc.	!
(16.b-LL	<
32a	.
16.cc	.
32b-)	.
(16.ddLL	.
32cc	.
16.ee-	.
32dd)	.
=282	=282
(16.ffLL	.
32ee-)	.
(4dd	.
16.ee-	.
32cc)	.
=283	=283
8b-L	p
8r	.
(32ddLLL	.
32ee-	.
32ff	.
32gg	.
32aa	.
32bb-	.
32ccc	.
32ddd)	.
=284	=284
(16.fffLL	.
32eee-)	.
8ddd	.
(16.dddLL	.
32ccc)	.
8bb-	.
=285	=285
(qqbb-	.
32aaLLL	.
32gg	.
32aa	.
32bb-)	.
8ccc	.
4r	.
=286	=286
2r	.
=287	=287
!LO:TX:t=cresc.	!
(16.cccLL	<
32bb-	.
16.aa	.
32bb-	.
16.ggLL	.
32aa	.
16.ff	.
32gg)	[
=288	=288
8eeL	p
8r	.
4r	.
=289	=289
[8ggL	.
32gg	.
(32eee	.
32ddd	.
32ccc)	.
(32cccLLL	.
32bb)	.
(32bb	.
32fff)	.
(32fffLLL	.
32ddd)	.
(32ddd	.
32bb)	.
=290	=290
(qqddd	.
32cccLLL	.
32bb	.
32ccc	.
32ddd)	.
8eee-	.
4r	.
=291	=291
[8gggL	.
32ggg	.
(32eee	.
32ddd	.
32ccc)	.
(32cccLLL	.
32bb)	.
(32bb	.
32fff)	.
(32fffLLL	.
32ddd)	.
(32ddd	.
32bb)	.
=292	=292
!LO:TX:t=decresc	!
!LO:TX:t=dd	!
16cccLL	.
16r	.
16r	.
(32bb-	.
32ddd)	.
8cccL	.
16r	.
(32bb-	.
32ddd)	.
=293	=293
8cccL	.
16r	.
16bb	.
16cccLL	.
16bb	.
16ccc	.
16bb	.
=294	=294
16bb-LL	pp
16r	.
16gg	.
16r	.
16eeLL	.
16r	.
8r	.
=295	=295
16cccLL	.
16r	.
16aa	.
16r	.
16ffLL	.
16r	.
8r	.
=296	=296
16eeLL	.
16ff	.
16gg	.
16aa	.
8bb-L	.
16r	.
16ee	.
=297	=297
16ffLL	.
16gg	.
16aa	.
16bb-	.
8cccL	.
16r	.
16ff	.
=298	=298
16r	.
16eeLL	.
16r	.
16gg	.
16r	.
16bb-	.
16r	.
16ee	.
=299	=299
16r	.
16ffLL	.
16r	.
16aa	.
16r	.
16ccc	.
16r	.
16ff	.
=300	=300
16r	.
!LO:TX:t=cresc.	!
16eeLL	<
16r	.
16gg	.
16r	.
16bb-	.
16r	.
16eee	.
=301	=301
4fff	f
(4d-	.
=302	=302
4B-	.
4G)	.
=303	=303
(8.e-L	sf
16d-)	.
8cL	.
(16.f	sf
32e-	.
=304	=304
8d-L)	.
(4g-	ff
8f)	.
=305	=305
8eL	p
8r	.
8r	.
16.dd-	pp
32dd-	.
=306	=306
4dd-	.
16r	.
16r	.
!LO:TX:t=cresc.	!
16.ee	<
32ee	.
=307	=307
[4ff	ff
16ffLL	.
(32ee	.
32dd	.
32cc	.
32b-	.
32a	.
32g)	.
=308	=308
8fL	.
8r	.
16r	.
(8ccc	p
16ff)	.
=309	=309
8eeL	.
8r	.
16r	.
8ccc	.
16ee	.
=310	=310
!LO:TX:t=cresc.	!
16ffLL	<
16fff	.
16fff	.
16fff	.
16fffLL	.
16fff	.
16fff	.
16fff	[
=311	=311
(16fffLL	p
32eee	.
32ddd	.
32ccc	.
32bb-	.
32aa	.
32gg)	.
(8ffTL	.
qqee	.
qqff	.
16aa	.
16gg)	.
=312	=312
(8ffL	.
8aa	.
8bb-	.
8aa)	.
=313	=313
(8ggL	.
8bb-	.
8ccc	.
[8bb-)	.
=314	=314
!LO:TX:t=cresc.	!
(16.bb-LL	<
32aa)	.
8ccc	.
(16.cccLL	.
32bb-)	.
[8ddd	.
=315	=315
(16.dddLL	.
32ccc)	.
[8eee-	sf
(8.eee-L	f
32ddd	.
32ccc)	.
=316	=316
(32bb-LLL	.
32aa	.
32gg	.
32ff	.
32ee-	.
32dd	.
32cc	.
32b-)	.
!LO:TX:t=decresc.	!
16aLL	.
16g	.
16f	.
16e	.
=317	=317
(8e-L	.
8d	.
8c#	.
8c)	.
=318	=318
(8B-L	p
8d	.
8e-	.
8d)	.
=319	=319
(8cL	.
8e-	.
8f	.
8e-)	.
=320	=320
(8dL	.
8f	.
8g	.
8f)	.
=321	=321
(16fLL	.
16e	.
16d	.
16c)	.
8fL	.
8r	.
=322	=322
(8b-L	.
8dd	.
8ee-	.
8dd)	.
=323	=323
(8ccL	.
8ee-	.
8ff	.
8ee-)	.
=324	=324
(8ddL	.
8ff	.
8gg	.
8ff)	.
=325	=325
(16ffLL	.
16ee	.
16dd	.
16cc)	.
(8.ffL	.
16ee-)	.
=326	=326
(16ee-LL	.
16dd	.
16cc	.
16b-)	.
(8.ee-L	.
16cc)	.
=327	=327
!LO:TX:t=cresc.	!
(16.b-LL	<
32a	.
16.cc	.
32b-)	.
(16.ddLL	.
32cc	.
16.ee-	.
32dd)	.
=328	=328
(16.ffLL	.
32ee-)	.
4dd	.
(16.ee-	.
32cc)	.
=329	=329
8b-L	p
8r	.
(32ddLLL	.
32ee-	.
32ff	.
32gg	.
32aa	.
32bb-	.
32ccc)	.
32ddd	.
=330	=330
(16.fffLL	.
32eee-)	.
8ddd	.
(16.dddLL	.
32ccc)	.
8bb-	.
=331	=331
(qqbb-	.
32aaLLL	.
32gg	.
32aa	.
32bb-)	.
8ccc	.
4r	.
=332	=332
2r	.
=333	=333
2r	.
=334	=334
(4aa-	pp
4dd)	.
=335	=335
!LO:TX:t=cresc.	!
[4ee-	<
16ee-LL	.
(32dd-	.
32cc-	.
32b-	.
32a-	.
32g-	.
32f)	.
=336	=336
(16.b-LL	.
32g-)	.
16e-	.
16e-	.
(16.a-LL	.
32f)	.
16d	.
16d	[
=337	=337
8e-L	p
8r	.
32r	.
(32g-	.
32a-	.
32b-	.
32cc	.
32dd-	.
32ee-	.
32ff)	.
=338	=338
!LO:TX:t=cresc.	!
(4gg-	<
4ccc)	.
=339	=339
[4ddd-	.
16ddd-LL	.
(32ccc	.
32bb-	.
32aa-	.
32gg-	.
32ff	.
32dd)	.
=340	=340
(16.aa-LL	.
32ff)	.
16dd-	.
16dd-	.
(16.gg-LL	.
32ee-)	.
16cc	.
16cc	.
=341	=341
(32dd-LLL	.
32cc	.
32b-	.
32a-	.
32g-	.
32f	.
32e-	.
32d-)	.
(32b-LLL	.
32a-	.
32g-	.
32f	.
32e-	.
32d-	.
32c	.
32B-)	[
=342	=342
2A-	f
=343	=343
(8fL	p
8d-	.
8c	.
8d-)	.
=344	=344
(8g-L	.
8e-	.
8d	.
8e-)	.
=345	=345
(8a-L	.
8f	.
8e	.
8f)	.
=346	=346
(8g-L	.
8e-	.
8d-	.
8c)	.
=347	=347
(8.ffL	.
32ee-	.
32dd-)	.
(8ccL	.
8dd-)	.
=348	=348
(8.gg-L	.
32ff	.
32ee-)	.
(8ddL	.
8ee-)	.
=349	=349
!LO:TX:t=cresc.	!
(8.aa-L	<
32gg	.
32ff)	.
(8eeL	.
8ff)	.
=350	=350
(8.ggL	.
32bb-)	.
32ddd-	.
(8ffL	.
8eet)	[
=351	=351
32ffLLL	p
(32ccc	.
32bb	.
32ccc	.
32bb-LLL	.
32aa-	.
32gg	.
32ff	.
32eeLLL	.
32ff	.
32gg	.
32ee	.
32ffLLL	.
32gg	.
32aa-	.
32ff)	.
=352	=352
(8ffL	.
8aa-	.
8bb-	.
8aa)	.
=353	=353
32bb-LLL	.
(32ff	.
32ee	.
32dd	.
32ee-LLL	.
32dd-	.
32cc	.
32b-	.
32aLLL	.
32b-	.
32cc	.
32a	.
32b-LLL	.
32cc	.
32dd-	.
32b-)	.
=354	=354
(8bb-L	.
8ddd-	.
8eee-	.
8ddd)	.
=355	=355
32eee-LLL	.
(32bb-	.
32aa	.
32bb-	.
32aa-LLL	.
32gg-	.
32ff	.
32ee-	.
32ddLLL	.
32ee-	.
32ff	.
32dd	.
32ee-LLL	.
32ff	.
32gg-	.
32ee-)	.
=356	=356
(8gg-L	.
8bb-	.
8ccc-	.
8bb-)	.
=357	=357
32r	.
(32bb-	pp
32aa	.
32bb-	.
32aa-LLL	.
32gg-	.
32ff	.
32ee-	.
32ddLLL	.
32ee-	.
32ff	.
32dd	.
32ee-LLL	.
32ff	.
32gg-	.
32ee-)	.
=358	=358
!LO:TX:t=cresc.	!
(32ccLLL	<
32dd-	.
32ee-	.
32cc	.
32dd-LLL	.
32ee-	.
32ff-	.
32dd-	.
32b-LLL	.
32cc-	.
32dd-	.
32b-	.
32cc-LLL	.
32dd-	.
32ee-	.
32cc-)	.
=359	=359
(32aLLL	.
32b-	.
32cc	.
32a	.
32b-LLL	.
32cc	.
32dd-	.
32b-	.
32a-LLL	.
32b-	.
32cc	.
32a-	.
32g-LLL	.
32a-	.
32b-	.
32g-	.
=360	=360
32fLLL)	.
(32aa	.
32gg	.
32ff	.
32eeLLL	.
32ff	.
32gg	.
32ff	.
32eeLLL	.
32ddd-	.
32ccc	.
32bb-	.
32aaLLL	.
32bb-	.
32ccc	.
32bb-)	[
=361	=361
8aaL	p
8r	.
4r	.
=362	=362
[8ccL	.
(32cc	.
32aa	.
32aa	.
32ff)	.
(32ffLLL	.
32ee)	.
(32ee	.
32bb-)	.
(32bb-LLL	.
32gg)	.
(32gg	.
32ee)	.
=363	=363
(16.cccLL	.
32aa)	.
8ff	.
4r	.
=364	=364
[8fffL	.
32fff	.
(32aaa	.
32ggg	.
32fff)	.
(32fffLLL	.
32eee)	.
(32eee	.
32bbb-)	.
(32bbb-LLL	.
32ggg)	.
(32ggg	.
32eee)	.
=365	=365
!LO:TX:t=decresc.	!
8fffL	.
16r	.
(32eee	.
32ggg)	.
8fffL	.
16r	.
(32eee	.
32ggg)	.
=366	=366
8fffL	.
16r	.
16eee	.
16fffLL	.
16eee	.
16fff	.
16eee	.
=367	=367
16eee-LL	pp
16r	.
16ccc	.
16r	.
16aa	.
16r	.
8r	.
=368	=368
16fffLL	.
16r	.
16ddd	.
16r	.
16bb-	.
16r	.
8r	.
=369	=369
16aaLL	.
16bb-	.
16ccc	.
16ddd	.
8eee-L	.
16r	.
16aa	.
=370	=370
16bb-LL	.
16ccc	.
16ddd	.
16eee-	.
8fffL	.
16r	.
16bb-	.
=371	=371
16r	.
16aaLL	.
16r	.
16ccc	.
16r	.
16eee-	.
16r	.
16aa	.
=372	=372
16r	.
16bb-LL	.
16r	.
16ddd	.
16r	.
16fff	.
16r	.
16bb-	.
=373	=373
!LO:TX:t=cresc.	!
16r	.
16aaLL	<
16r	.
16ccc	.
16r	.
16eee-	.
16r	.
16aa	.
=374	=374
4bb-	f
(4g-	.
=375	=375
4e-	.
4c)	.
=376	=376
(8.a-L	sf
16g-	.
8fL)	.
(16.b-	sf
32a-	.
=377	=377
8g-L)	.
(4cc-	ff
8b-	[
=378	=378
8aL)	p
8r	.
8r	.
16.gg-	pp
32gg-	.
=379	=379
8gg-L	.
8r	.
8r	.
!LO:TX:t=cresc.	!
16.aa	.
32aa	.
=380	=380
[4bb-	ff
16bb-LL	.
(32aa	.
32gg	.
32ffLLL	.
32ee-	.
32dd	.
32cc)	[
=381	=381
(8b-L	p
8dd	.
8ee-	.
8dd)	.
=382	=382
(8ccL	.
8ee-	.
8ff	.
8ee-)	.
=383	=383
(8ddL	.
8ff	.
8gg	.
8ff)	.
=384	=384
(16ffLL	.
16ee	.
16dd	.
16cc)	.
(8.ffL	.
16ee-)	.
=385	=385
(16ee-LL	.
16dd	.
16cc	.
16b-)	.
(8aL	.
8b-)	.
=386	=386
(16ffLL	.
16ee-	.
16dd	.
16cc)	.
(8bL	.
8cc)	.
=387	=387
(16ggLL	.
16ff	.
16ee-	.
16dd)	.
(8cc#L	.
8dd)	.
=388	=388
!LO:TX:t=cresc.	!
8.ggL	<
16gg	.
8.ccL	.
16cc	.
=389	=389
8.ffL	.
16ff	.
8.b-L	.
16b-	.
=390	=390
(16ffLL	.
8ee-	.
16dd)	.
(16ddLL	.
16cc	.
16b-	.
16a)	[
=391	=391
24b-LL	sf
24b-	.
24b-	.
24b-	.
24b-	.
24b-	.
24b-LL	sf
24g	.
24g	.
24g	.
24g	.
24g	.
=392	=392
24gLL	sf
24ee-	.
24ee-	.
24ee-	.
24ee-	.
24ee-	.
24ee-LL	sf
24ccc	.
24ccc	.
24ccc	.
24ccc	.
24ccc	.
=393	=393
24cccLL	f
24bb-	.
24aa	.
24gg	.
24ff	.
24ee-	.
24ddLL	.
24cc	.
24b-	.
24a	.
24g	.
24f	.
=394	=394
!LO:TX:t=decresc.	!
(4e	.
4e-)	.
=395	=395
(8dL	p
8f	.
8g-	.
8f)	.
=396	=396
(8.ffL	.
32ee-	.
32dd)	.
(8ccL	.
8dd)	.
=397	=397
(8ggL	.
8bb-	.
8ccc-	.
8bb-)	.
=398	=398
(8.gggL	.
32fff	.
32eee-)	.
(8dddL	.
8eee-)	.
=399	=399
!LO:TX:t=cresc.	!
(8eee-L)	<
[8ddd)	.
16dddLL	.
(16ccc	.
16bb-	.
16aa)	.
=400	=400
24bb-LL	sf
24b-	.
24b-	.
24b-	.
24b-	.
24b-	.
24b-LL	sf
24g	.
24g	.
24g	.
24g	.
24g	.
=401	=401
24gLL	sf
24ee-	.
24ee-	.
24ee-	.
24ee-	.
24ee-	.
24ee-LL	sf
24ccc	.
24ccc	.
24ccc	.
24ccc	.
24ccc	.
=402	=402
24cccLL	sf
24eee-	.
24eee-	.
24eee-	.
24eee-	.
24eee-	.
24eee-LL	sf
24eee-	.
24eee-	.
24eee-	.
24eee-	.
24eee-	.
=403	=403
24eee-LL	ff
24ccc	.
24aa	.
24ee-	.
24cc	.
24a	.
24ee-LL	.
24cc	.
24a	.
24e-	.
24c	.
24A	.
=404	=404
8ccL 8aa	f
8r	.
4r	.
=405	=405
2r	.
=406	=406
4r	.
8r	.
(8dd	pp
=407	=407
8ee-L)	.
8r	.
8r	.
(8gg-	.
=408	=408
8ffL)	.
8r	.
8r	.
(8bb-	.
=409	=409
8ccL)	.
8r	.
8r	.
(8ff	.
=410	=410
8b-L)	.
8r	.
4r	.
=411	=411
(8.cccL	.
32bb-	.
32aa)	.
(16ggLL	.
16ff)	.
16ff	.
16ff	.
=412	=412
8ffL	.
8r	.
4r	.
=413	=413
(16cccLL	.
32bb	.
32ccc	.
32dddLLL	.
32ccc	.
32bb-	.
32aa)	.
(16ggLL	.
16ff)	.
16ff	.
16ff	.
=414	=414
(8ffL	.
8bb-	.
8aa	.
8bb-)	.
=415	=415
8r	.
(8ddd	.
8ccc#	.
8ddd)	.
=416	=416
8r	.
(8fff	.
8eee	.
8fff)	.
=417	=417
8r	.
8eee-	p
8r	.
8aa	.
=418	=418
8r	.
8bb-	.
4r	.
=419	=419
8r	.
!LO:TX:t=smor -	!
8gg	.
4r	.
=420	=420
8r	.
!LO:TX:t=zan -	!
8a	.
4r	.
=421	=421
!LO:TX:t=do	!
8b-L	.
8r	.
8dL	pp
8r	.
=422	=422
8B-L	.
8r	.
4r	.
=423!|:	=423!|:
*k[f#c#]	*
*D:	*
*M3/4	*
!LO:TX:a:B:t=Allegro	!
4f#	p
=424	=424
[2.f#	.
=425	=425
(4f#	.
4g	.
4e)	.
=426	=426
(4d	.
4c#)	.
4d	.
=427	=427
(4f#	.
4e)	.
4f#	.
=428	=428
2f#	<
[4g	.
=429	=429
(4g	>
4f#)	.
4e#	]
=430	=430
(2f#	.
8aL	.
8g#)	.
=431!|:	=431!|:
4f#	.
4r	.
=	=
[4a	.
=432	=432
4a	.
(4g	.
4f#	.
=433	=433
4g	.
4a	.
4b	.
=434	=434
4cc	.
4dd	.
4ee)	.
=435	=435
2a	.
4b	pp
=436	=436
[2.b	.
=437	=437
4b	.
(4cc	.
4a)	.
=438	=438
(4g	.
4f#)	.
4g	.
=439	=439
(4b	.
4a)	.
4a#	sf
=440	=440
(4cc	.
4b)	.
4cc#	sf
=441	=441
(4ee	.
4dd)	.
4ee	sf
=442	=442
(4gg	.
4ff#)	.
4gg	sf
=443	=443
!LO:TX:t=cresc.	!
[2.gg#	<
=444	=444
(2.gg#	.
=445	=445
2aa)	p
4aa#	.
=446	=446
(2.aa#	.
=447	=447
4bb	.
4gg	.
4ff#)	.
=448	=448
(2.ee#	<
=449	=449
4ff#)	[
4r	.
4aa#	.
=450	=450
(2.aa#	.
=451	=451
4bb	.
4gg	.
4ee)	.
=452	=452
(2.dd	<
=453	=453
4cc#)	[
4r	.
4dd	.
=454	=454
(2ff#	>
4ee)	.
=455	=455
(2gg	>
4cc#)	.
=456	=456
4dd	]
4r	.
4r	.
=457	=457
2.r	.
=458	=458
2.r	.
=459	=459
2.r	.
=460	=460
2.r	.
=461	=461
2.r	.
=462	=462
4r	.
4r	.
4bb	p
=463	=463
!LO:TX:t=cresc.	!
(4bb	.
4ccc)	.
4aa	.
=464	=464
(4gg	.
4aa)	.
4ff#	sf
=465	=465
(4ee	.
4ff#)	.
4dd	sf
=466	=466
(4cc#	.
4dd)	.
4b	sf
=467	=467
(4a	.
4b)	.
4g	sf
=468	=468
(4f#	.
4g)	.
4e	sf
=469	=469
(4d	.
4e)	.
4c#	sf
=470	=470
(2.d	.
=471	=471
2.e)	.
=472	=472
4f#)	.
(4b	<
4a	.
=473	=473
4g	>
4f#	.
4e)	]
=474	=474
!LO:TX:t=cresc.	!
(2.dd	.
=475	=475
2.ee)	.
=476	=476
4ff#)	p
(4bb	.
4aa	.
=477	=477
4gg	.
4ff#	.
4ee	.
=478	=478
4dd)	.
4r	.
4r	.
=479	=479
4r	.
(4a	.
4cc#)	.
=480	=480
4dd	.
4r	.
4r	.
=481	=481
4r	.
(4aa	.
4ccc#)	.
=482	=482
!LO:TX:t=cresc.	!
4ddd	<
(4aa	.
4ccc#)	.
=483	=483
4ddd	.
4ggg	.
4ccc#	.
=484	=484
(2.eee	sfp
=485	=485
4ddd)	.
4r	.
=:|!|:	=:|!|:
*k[b-]	*
*d:	*
4r	.
=486	=486
(2.f	p
=487	=487
2.e	.
=488	=488
2.d	sf
=489	=489
4c#)	.
4r	.
4a	.
=490	=490
(8aL	.
8cc#	.
8dd	.
8ee	.
8ff	.
8gg	.
=491	=491
8aaL	.
8gg#	.
8aa	.
8gg#	.
8aa	.
8gg#)	.
=492	=492
(8aaL	sf
8ddd	.
8ccc	.
8bb-	.
8aa	.
8gg#)	.
=493	=493
4aa	.
4r	.
4aa	.
=494	=494
!LO:TX:t=cresc.	!
(8aaL	<
8bb	.
8ccc	.
8bb	.
8aa	.
8bb	.
=495	=495
8cccL	.
8bb	.
8aa	.
8bb	.
8ccc	.
8bb)	.
=496	=496
(8aaL	p
8ccc	.
8eee	.
8ccc	.
8bb	.
8gg#)	.
=497	=497
4aa	.
4r	.
=:|!	=:|!
4r	.
=498	=498
(2.e-	p
=499	=499
2.d	.
=500	=500
2.c	sf
=501	=501
4B-)	.
4r	.
4d	.
=502	=502
(8dL	.
8f#	.
8g#	.
8a	.
8b-	.
8cc	.
=503	=503
8ddL	.
8cc#	.
8dd	.
8cc#	.
8dd	.
8cc#)	.
=504	=504
(8ddL	sf
8gg	.
8ff	.
8ee	.
8dd	.
8cc#)	.
=505	=505
4dd	.
4r	.
4a	.
=506	=506
(8aL	.
8cc#	.
8dd	.
8ee	.
8ff	.
8gg	.
=507	=507
8aaL	.
8gg#	.
8aa	.
8gg#	.
8aa	.
8gg#)	.
=508	=508
(8aaL	sf
8ddd	.
8ccc	.
8bb-	.
8aa	.
8gg#)	.
=509	=509
4aa	.
4r	.
4aa	.
=510	=510
(8aaL	sf
8ddd	.
8ccc	.
8bb-	.
8aa	.
8gg#)	.
=511	=511
4aa	.
4r	.
4aa	.
=512	=512
!LO:TX:t=cresc.	!
(8aaL	<
8ddd	.
8ccc	.
8bb-	.
8aa	.
8gg#	.
=513	=513
8aaL	.
8gg#	.
8aa	.
8gg#	.
8aa	.
8gg#)	.
=514	=514
4aa	p
4r	.
4r	.
=515	=515
!LO:TX:t=decresc.	!
4ccc#	.
4r	.
4r	.
=516	=516
4eee	.
4r	.
4r	.
=517	=517
4fff#	.
4r	.
4r	.
=518	=518
4ggg	pp
4r	.
4r	.
=519	=519
2.r	.
=520	=520
2.r	.
=521	=521
4r	.
4r	.
4f#	p
=522||	=522||
*k[f#c#]	*
*D:	*
[2.f#	.
=523	=523
(4f#	.
4g	.
4e)	.
=524	=524
(4d	.
4c#)	.
4d	.
=525	=525
(4f#	.
4e)	.
4f#	.
=526	=526
2f#	<
[4g	[
=527	=527
4g	>
4f#	]
4e#	.
=528	=528
(2f#	.
8aL	.
8g#)	.
=529	=529
4f#	.
4r	.
4ff#	.
=530	=530
[2.ff#	.
=531	=531
(4ff#	.
4gg	.
4ee)	.
=532	=532
(4dd	.
4cc#)	.
4dd	.
=533	=533
(4ff#	.
4ee)	.
4ff#	.
=534	=534
2ff#	<
[4gg	>
=535	=535
(4gg	]
4ff#)	.
4ee#	.
=536	=536
(2ff#	.
8aaL	.
8gg#)	.
=537	=537
4ff#	.
4r	.
[4aa	.
=538	=538
4aa	.
(4gg	.
4ff#	.
=539	=539
4gg	.
4aa	.
4bb	.
=540	=540
4ccc	.
4ddd	.
4eee)	.
=541	=541
2aa	.
4bb	pp
=542	=542
[2.bb	.
=543	=543
(4bb	.
4ccc	.
4aa)	.
=544	=544
(4gg	.
4ff#)	.
4gg	.
=545	=545
(4bb	.
4aa)	.
4aa#	sf
=546	=546
(4ccc	.
4bb)	.
4ccc#	sf
=547	=547
(4eee	.
4ddd)	.
4eee	sf
=548	=548
(4ggg	.
4fff#)	.
4ggg	sf
=549	=549
!LO:TX:t=cresc.	!
[2.ggg#	<
=550	=550
2.ggg#	.
=551	=551
2aaa	p
4aa#	.
=552	=552
(2.aa#	.
=553	=553
4bb	.
4gg	.
4ff#)	.
=554	=554
(2.ee#	<
=555	=555
4ff#)	>
4r	]
4aa#	.
=556	=556
(2.aa#	.
=557	=557
4bb	.
4gg	.
4ee)	.
=558	=558
(2.dd	<
=559	=559
4cc#)	[
4r	.
4dd	.
=560	=560
(2ff#	>
4ee)	]
=561	=561
(2gg	>
4cc#)	]
=562	=562
4dd	.
4r	.
4r	.
=563	=563
2.r	.
=564	=564
2.r	.
=565	=565
2.r	.
=566	=566
2.r	.
=567	=567
2.r	.
=568	=568
4r	.
4r	.
4bb	p
=569	=569
!LO:TX:t=cresc.	!
(4bb	<
4ccc)	.
4aa	.
=570	=570
(4gg	[
4aa)	.
4ff#	sf
=571	=571
(4ee	.
4ff#)	.
4dd	sf
=572	=572
(4cc#	.
4dd)	.
4b	sf
=573	=573
(4a	.
4b)	.
4g	sf
=574	=574
(4f#	.
4g)	.
4e	sf
=575	=575
(4d	.
4e)	.
4c#	sf
=576	=576
(2.d	.
=577	=577
2.e)	.
=578	=578
4f#)	<
(4b	.
4a	.
=579	=579
4g	>
4f#	.
4e)	]
=580	=580
!LO:TX:t=cresc.	!
(2.dd	<
=581	=581
2.ee	.
=582	=582
4ff#)	p
(4bb	.
4aa	.
=583	=583
4gg	.
4ff#	.
4ee)	.
=584	=584
4dd	.
4r	.
4r	.
=585	=585
4r	.
(4a	.
4cc#	.
=586	=586
4dd)	.
4r	.
4r	.
=587	=587
4r	.
(4aa	.
4ccc#)	.
=588	=588
!LO:TX:t=cresc.	!
4ddd	<
(4aa	.
4ccc#	.
=589	=589
4ddd)	.
(4ggg	.
4ccc#)	.
=590	=590
(2.eee	sfp
=591	=591
4ddd)	.
4r	.
=	=
*M6/8	*
!LO:TX:a:B:t=Presto	!
(8ddL	p
8cc#	.
=592!|:	=592!|:
8ddL)	.
(8b	.
8a#	.
8bL)	.
(8g	.
8f#	.
=593	=593
8gL)	.
(8e	.
8d#	.
8eL)	.
8f#	.
8g	.
=594	=594
8aL	.
8b	.
8cc#	.
8ddL	.
8ee	.
8ff#	.
=595	=595
4gg	.
8r	.
8r	.
(8ff#	.
8ee#	.
=596	=596
8ff#L)	.
(8dd	.
8cc#	.
8ddL)	.
(8b	.
8a#	.
=597	=597
8bL)	.
(8g	.
8f#	.
8gL)	.
8a	.
8b	.
=598	=598
8cc#L	.
8dd	.
8ee	.
8ff#L	.
8gg	.
8aa	.
=599	=599
4bb	.
8r	.
8r	.
(8aa	.
8gg#)	.
=600	=600
(8aaL	.
8bb)	.
8ccc	.
4ccc	.
8ccc	.
=601	=601
(4.ccc	.
8bbJ)	.
(qqddd	.
8cccL	.
8bb)	.
=602	=602
(8cccL	.
8ddd)	.
8eee	.
4eee	.
8eee	.
=603	=603
(4.eee	.
8dddJ)	.
(qqaa	.
8ggL	.
8ff#)	.
=604	=604
(8ggL	.
8aa)	.
8bb	.
4bb	.
8bb	.
=605	=605
(4.bb	.
4aa)	.
[8aa	.
=606	=606
4aa	.
[8gg	.
4gg	.
8ee	.
=607	=607
(4.ee	.
4ff#)	.
8r	.
=608	=608
2.r	.
=609	=609
(4.dd#t	sf
qqcc#)	.
qqdd#	.
4ee	.
8r	.
=610	=610
2.r	.
=611	=611
(4.ff#t	sf
qqee)	.
qqff#	.
8ggL	.
(8gg	.
8ff#)	.
=612	=612
(8ggL	.
8aa)	.
8bb	.
8bbL	.
8bb	.
8bb	.
=613	=613
(4.bb	sf
4ee)	.
8r	.
=614	=614
(8bbL	sf
8ee)	.
8r	.
(8bbL	sf
8ee)	.
8r	.
=615	=615
(8bbL	sf
[4ee)	.
4ee	.
[8ff#	.
=616	=616
4ff#	.
[8gg	.
4gg	.
8ee	.
=617	=617
4dd	.
8r	.
4aa	p
8ddd	.
=618	=618
(8dddL	.
8ccc#)	.
8bb	.
(8bbL	.
8aa)	.
8gg	.
=619	=619
(8ggL	.
8ff#)	.
8ee	.
(8eeL	.
8dd)	.
8cc#	.
=620	=620
(8cc#L	.
8b)	.
8ee	.
(8eeL	.
8cc#)	.
8a	.
=621	=621
4dd	.
8r	.
4aa	.
8ddd	.
=622	=622
(8dddL	.
8ccc#)	.
8bb	.
(8bbL	.
8aa)	.
8gg	.
=623	=623
(8ggL	.
8ff#)	.
8ee	.
(8eeL	.
8dd)	.
8cc#	.
=624	=624
(8cc#L	.
8b)	.
8ee	.
(8eeL	.
8cc#)	.
8a	.
=625	=625
4dd	.
8r	.
4r	.
8gg	.
=626	=626
4cc#	.
8ff#	.
4dd	.
8ee	.
=627	=627
4ff#	.
8r	.
4r	.
8gg	.
=628	=628
4ee	.
8ff#	.
4dd	.
8ee	.
=629	=629
4ff#	.
8r	.
8r	.
!LO:TX:t=cresc.	!
(8ff#	<
8ee#	.
=630	=630
4ff#)	.
8r	.
8r	.
(8aa	.
8gg#	.
=631	=631
4aa)	.
8r	.
8r	.
(8ccc	.
8bb)	.
=632	=632
8cccL	sf
8aa	.
8bb	.
8cccL	.
8ddd	.
8ddd#	.
=633	=633
4eee	.
8r	.
(4.fff	p
=634	=634
4.eee	.
4.ddd	.
=635	=635
4.ccc	.
4.bb	.
=636	=636
4.aa)	.
(4.ff#	sf
=637	=637
4ee)	.
8r	.
(4.ff	.
=638	=638
4.ee	.
4.dd	.
=639	=639
4.cc	.
4.b	.
=640	=640
4.a)	.
(4.f#	sf
=641	=641
8eL)	.
(8e	.
8d#	.
8eL)	.
8d#	.
8e	.
=642	=642
8e#L	sf
(8f#	.
8e#	.
8f#L)	.
8e#	.
8f#	.
=643	=643
8g#L	sf
(8a	.
8g#	.
8aL)	.
8g#	.
8a	.
=644	=644
!LO:TX:t=cresc.	!
(8a#L	<
8b)	.
8b	.
(8b#L	.
8cc#)	.
8cc#	.
=645	=645
(8cc#L	.
8dd)	.
8dd	.
(8dd#L	.
8ee)	.
8ee	.
=646	=646
(8ee#L	.
8ff#)	.
8ff#	.
(8ff##L	.
8gg#)	.
8gg#	.
=647	=647
4aa	p
8ee	.
(4ee	.
8aa)	.
=648	=648
4gg#	.
8ee	.
(4ee	.
8gg#)	.
=649	=649
4aa	.
8aa	.
4aa#	.
8bb	.
=650	=650
4ccc	.
8ccc#	.
4ddd	.
8ddd#	.
=651	=651
4eee	.
8eee	.
4ee	.
8ee	.
=652	=652
4dd#	.
8ddd	.
4dd	.
8dd	.
=653	=653
4cc#	.
8r	.
(8ee#L	.
8ff#)	.
8b	.
=654	=654
(8dd#L	.
8ee)	.
8a	.
(8cc#L	.
8dd)	.
8g#	.
=655	=655
4a	.
8r	.
4.r	.
=656	=656
2.r	.
=657	=657
8r	.
8r	.
8ee	.
(4ee	.
8aa)	.
=658	=658
4gg#	.
8ee	.
(4ee	.
8gg#)	.
=659	=659
4aa	.
8r	.
4.r	.
=660	=660
2.r	.
=661	=661
8r	.
8r	.
8aa	.
4a	.
8a	.
=662	=662
4g#	.
8gg	.
4g	.
8g	.
=663	=663
4f#	.
8aa	.
!LO:TX:t=cresc.	!
4a	<
8aa	.
=664	=664
4g#	.
8gg#	.
4g	.
8gg	.
=665	=665
4f#	.
8ff#	.
4f	.
8ff	.
=666	=666
4e	.
8ee	.
4d#	.
8dd#	.
=667	=667
4d 4dd	sf
(16gg#	.
16aa	.
8bbL)	.
8gg#	.
8dd	.
=668	=668
4cc#	sf
(16ccc#	.
16ddd	.
8eeeL)	.
8ccc#	.
8aa	.
=669	=669
4dd	sf
(16gg#	.
16aa	.
8bbL)	.
8gg#	.
8ee	.
=670	=670
8ddL	.
8b	.
8g#	.
8eL	ff
8e	.
8e	.
=671	=671
4f	.
8r	.
4r	.
(8a	p
=672	=672
!LO:TX:t=dol.	!
qqcc	.
4b-	.
8a	.
4b-	.
8cc)	.
=673	=673
4a	.
8r	.
4r	.
(8aa	.
=674	=674
qqccc	.
4bb-	.
8aa	.
4bb-	.
8ccc)	.
=675	=675
4aa	.
8r	.
4r	.
(8aa	.
=676	=676
qqccc	.
4bb-	.
8aa	.
4bb-	.
8ccc)	.
=677	=677
4aa	.
8ccc	pp
4fff	.
8r	.
=678	=678
(2.d#	ff
=679	=679
8eL)	.
8a	.
8cc#	.
8eeL	.
8aa	.
8ccc#	.
=680	=680
4eee	.
8r	.
4.gg#t	.
=681	=681
qqff#	.
qqgg	.
4aa	.
8r	.
4r	.
8r	.
=682	=682
(2.e-	ff
=683	=683
8dL)	.
8f	.
8b-	.
8ddL	.
8ff	.
8bb-	.
=684	=684
8f#L	.
8a	.
8cc	.
8ff#L	.
8aa	.
8ccc	.
=685	=685
8eL	.
8a	.
8cc#	.
8eeL	.
8aa	.
8ccc#	.
=686	=686
8dddL	.
8bb	.
8gg#	.
8ddL	.
8b	.
8g#	.
=687	=687
4a	.
8r	.
8r	.
8gg#	.
8gg#	.
=688	=688
4aa	.
8r	.
8r	.
8ddd	.
8ddd	.
=689	=689
4ccc#	.
8r	.
8r	.
8gg#	.
8gg#	.
=690	=690
4aa	.
8r	.
8r	.
8g#	.
8g#	.
=691	=691
8aL	.
8cc#	.
8ee	.
(4ff#	sf
8ee)	.
=692	=692
8aL	.
8cc#	.
8ee	.
(4ff#	sf
8ee)	.
=693	=693
8aL	.
8cc#	.
8ee	.
(4ff#	sf
8ee)	.
=694	=694
(4ee	.
8dd)	.
(4dd	.
8cc#)	.
=695	=695
!LO:TX:t=cresc.	!
(4cc#	<
8b)	.
(4b	.
8a)	.
=696	=696
(4a	.
8g)	.
(4g	.
8f#)	.
=697	=697
(4f#	.
8e)	.
(4e	.
8d#)	.
=698	=698
(4d#	.
8d)	.
(4d	.
8c#)	.
=699	=699
8c#L	f
(8e	.
8d#	.
8eL)	.
(8g	.
8f#	.
=700	=700
8gL)	.
(8cc#	.
8b#	.
8cc#L)	.
(8ee	.
8dd#	.
=701	=701
8eeL)	f
(8gg	.
8ff#	.
8ggL)	.
(8ccc#	.
8bb#	.
=702	=702
8ccc#L)	.
(8eee	.
8ddd#	.
8eeeL)	.
(8ggg	.
8fff#	.
=703	=703
8gggL)	f
(8eee	.
8ddd#	.
8eeeL)	.
(8ggg	.
8fff#	.
=704	=704
8gggL)	.
(8eee	.
8ddd#	.
8eeeL)	.
(8ggg	.
8fff#	.
=705	=705
4ggg)	f
8r	.
8r	.
(8gg	p
8ff#	.
=706	=706
4gg)	.
8r	.
8r	.
(8g	.
8f#	.
=707	=707
4g)	.
8r	.
4r	.
8r	.
=708	=708
2.r	.
=709	=709
2.r	.
=710	=710
4r	.
8r	.
8r	.
(8dd	.
8cc#)	.
=711	=711
8ddL	.
(8b	.
8a#	.
8bL)	.
(8g	.
8f#)	.
=712:|!	=712:|!
4ggg	f
8r	.
8r	.
(8gg	p
8ff#	.
=713	=713
4gg)	.
8r	.
8r	.
(8g	.
8f#	.
=714	=714
4g)	.
8r	.
4r	.
8r	.
=715	=715
2.r	.
=716	=716
2.r	.
=717	=717
4r	.
8r	.
8r	.
(8ff#	p
8ee#)	.
=718	=718
4ff#	.
8r	.
8r	.
(8ee	.
8dd#	.
=719	=719
4ee)	.
8r	.
8r	.
(8dd#	.
8cc##	.
=720	=720
4dd#)	.
8r	.
8r	.
8e	pp
8f#	.
=721	=721
4e	.
8r	.
8r	.
8d	.
8e	.
=722	=722
4d	.
8r	.
8r	.
(8c	.
8d	.
=723	=723
4c)	.
8r	.
8r	.
(8aa	.
8gg#	.
=724	=724
4aa)	.
8r	.
8r	.
(8gg	.
8ff#	.
=725	=725
4gg)	.
8r	.
8r	.
(8ff#	.
8ee#	.
=726	=726
4ff#)	.
8r	.
4r	.
8r	.
=727	=727
2.r	.
=728	=728
2.r	.
=729	=729
2.r	.
=730	=730
2.r	.
=731	=731
4dd	f
8r	.
[4.gg	sf
=732	=732
2.gg	.
=733	=733
8ff#L	.
(8ddd	.
8ccc#	.
8dddL)	.
(8bb	.
8aa#)	.
=734	=734
8bbL	.
8eee	.
8ddd	.
8ccc#L	.
8bb	.
8aa	.
=735	=735
8dddL	p
8ff#	.
8ee#	.
8ff#L	.
8ff#	.
8gg	.
=736	=736
8aaL	.
8bb	.
8ccc#	.
8dddL	.
8eee	.
8fff#	.
=737	=737
(8ddd#L	.
8eee)	.
8r	.
4.r	.
=738	=738
2.r	.
=739	=739
8r	.
(8ee	.
8dd#	.
8eeL)	.
8ee	.
8ff#	.
=740	=740
8ggL	.
8aa	.
8bb	.
8cccL	.
8ddd	.
8eee	.
=741	=741
(8ccc#L	.
8ddd)	.
8r	.
4r	.
8r	.
=742	=742
2.r	.
=743	=743
4bb	.
8r	.
[4.eee	sf
=744	=744
2.eee	.
=745	=745
4ddd#	.
8r	.
[4.aa	sf
=746	=746
2.aa	.
=747	=747
4gg	.
8r	.
[4.ccc	sf
=748	=748
2.ccc	.
=749	=749
4bb	.
8r	.
[4.ff#	sf
=750	=750
2.ff#	.
=751	=751
8ee#L	.
8bb	.
8gg#	.
8ee#L	.
8bb	.
8gg#	.
=752	=752
8ee#L	.
8bb	.
8gg#	.
8ee#L	.
8bb	.
8gg#	.
=753	=753
8ee#L	.
8bb	.
8gg#	.
8ee#L	.
8bb	.
8gg#	.
=754	=754
8ee#L	.
8bb	.
8gg#	.
8ee#L	.
8gg#	.
8bb	.
=755	=755
8aa#L	.
8eee	.
8ccc#	.
8aa#L	.
8eee	.
8ccc#	.
=756	=756
8aa#L	.
8eee	.
8ccc#	.
8aa#L	.
8eee	.
8ccc#	.
=757	=757
8aa#L	.
8eee	.
8ccc#	.
8aa#L	.
8eee	.
8ccc#	.
=758	=758
8aa#L	.
8eee	.
8ccc#	.
8aa#L	.
8ccc#	.
8eee	.
=759	=759
8ddd#L	.
8aaa	.
8fff#	.
8ddd#L	.
8aaa	.
8fff#	.
=760	=760
8ddd#L	.
8aaa	.
8fff#	.
8ddd#L	.
8aaa	.
8fff#	.
=761	=761
8ddd#L	.
8aaa	.
8fff#	.
8ddd#L	.
8aaa	.
8fff#	.
=762	=762
8ddd#L	.
8aaa	.
8fff#	.
8ddd#L	.
8fff#	.
8aaa	.
=763	=763
8gggL	.
8bbb	.
8bbb	.
8bbbL	ff
8bbb	.
8bbb	.
=764	=764
8bbbL	.
8bbb	.
8bbb	.
8bbbL	.
8bbb	.
8bbb	.
=765	=765
2.f#	p
=766	=766
2.cc#t	.
=767	=767
(8bL	.
8cc	.
8cc#	.
8ddL	ff
8ee	.
8ee#	.
=768	=768
8ff#L	.
8gg	.
8gg#	.
8aaL	.
8aa#	.
8bb)	.
=769	=769
2.f#	.
=770	=770
2.cc#t	.
=771	=771
4b	.
8r	.
4.r	.
=772	=772
2.r	.
=773	=773
4r	.
8r	.
8bbL	pp
8ccc#	.
8ddd	.
=774	=774
8eeeL	.
8ddd	.
8ccc#	.
8ccc#L	.
8ddd	.
8eee	.
=775	=775
8dddL	.
8ccc#	.
8bb	.
4r	.
8r	.
=776	=776
4r	.
8r	.
8ddL	.
8cc	.
8b	.
=777	=777
4a	.
8r	.
4r	.
8r	.
=778	=778
2.r	.
=779	=779
4r	.
8r	.
8aaL	pp
8bb	.
8ccc	.
=780	=780
8dddL	.
8ccc	.
8bb	.
8bbL	.
8ccc	.
8ddd	.
=781	=781
8cccL	.
8bb	.
8aa	.
4r	.
8r	.
=782	=782
4r	.
8r	.
8ccL	.
8b	.
8a	.
=783	=783
4g	.
8r	.
4r	.
8r	.
=784	=784
2.r	.
=785	=785
4r	.
8r	.
8ggL	p
8aa	.
8bb	.
=786	=786
8cccL	.
8bb	.
8aa	.
8aaL	.
8bb	.
8ccc	.
=787	=787
4bb	.
8r	.
4r	.
8r	.
=788	=788
8r	.
8r	.
8gg	pp
4b	.
8b	.
=789	=789
[2.b	.
=790	=790
4b	.
8gg	.
4b	.
8b	.
=791	=791
[2.b-	.
=792	=792
4b-	.
8gg	.
4b-	.
8b-	.
=793	=793
[2.b-	.
=794	=794
4b-	.
8gg	.
4b-	.
8b-	.
=795	=795
[2.b	.
=796	=796
4b	.
8gg	.
4b	.
8b	.
=797	=797
[2.cc#	.
=798	=798
4cc#	.
[8cc#	.
4cc#	.
8cc#	.
=799	=799
!LO:TX:t=smor    -         -       -         -	!
[2.cc#	.
=800	=800
4cc#	.
[8cc#	.
[4cc#	.
8cc#	.
=801	=801
!LO:TX:t=zan	!
[2.dd	.
=802	=802
4dd	.
[8dd	.
!LO:TX:t=-           -             -        -        -      -      do	!
4dd	.
(8dd	.
=803	=803
[2.e)	.
=804	=804
4e	.
[8e	.
4e	.
8e	.
=805	=805
[2.e	pp
=806	=806
4e	.
[8e	.
4e	.
(8e	.
=807	=807
4e)	.
8r	.
4r	.
8r	.
=808	=808
4r	.
8r	.
8r	.
(8dd	ff
8cc#	.
=809	=809
8ddL)	f
(8b	.
8a#	.
8bL)	.
(8g	.
8f#	.
=810	=810
8gL)	.
(8e	.
8d#	.
8eL)	.
8f#	.
8g	.
=811	=811
8aL	.
8b	.
8cc#	.
8ddL	.
8ee	.
8ff#	.
=812	=812
4gg	.
8r	.
8r	.
(8ff#	p
8ee#	.
=813	=813
8ff#L)	.
(8dd	.
8cc#	.
8ddL)	.
(8b	.
8a#)	.
=814	=814
8bL	.
(8g	.
8f#	.
8gL)	.
8a	.
8b	.
=815	=815
8cc#L	.
8dd	.
8ee	.
8ff#L	.
8gg	.
8aa	.
=816	=816
4bb	.
8r	.
8r	.
(8aa	.
8gg#)	.
=817	=817
(8aaL	.
8bb)	.
8ccc	.
4ccc	.
8ccc	.
=818	=818
(4.ccc	.
8bb)	.
(qqddd	.
8cccL	.
8bb)	.
=819	=819
(8cccL	.
8ddd)	.
8eee	.
4eee	.
8eee	.
=820	=820
(4.eee	.
8dddJ)	.
(qqfff#	.
8eeeL	.
8ddd#)	.
=821	=821
!LO:TX:t=cresc.	!
(8eeeL	<
8fff#)	.
8ggg	.
4ggg	.
8ggg	.
=822	=822
(4.ggg	sf
4fff#)	.
[8fff#	.
=823	=823
4fff#	.
[8eee	.
4eee	.
[8ccc#	.
=824	=824
(4.ccc#	.
4ddd)	.
8r	.
=825	=825
2.r	.
=826	=826
(4.dd#t	sf
qqcc#)	.
qqdd#	.
4ee	.
8r	.
=827	=827
2.r	.
=828	=828
(4.ff#t	sf
qqee)	.
qqff#	.
8ggL	.
(8gg	.
8ff#)	.
=829	=829
(8ggL	.
8aa)	.
8bb	.
8bbL	.
8bb	.
8bb	.
=830	=830
(4.bb	sf
4ee)	.
8r	.
=831	=831
(8bbL	sf
8ee)	.
8r	.
(8bbL	sf
8ee)	.
8r	.
=832	=832
(8bbL	.
[4ee)	sf
4ee	.
[8ff#	.
=833	=833
4ff#	.
[8gg	.
4gg	.
8ee	.
=834	=834
4dd	.
8r	.
4aa	p
8ddd	.
=835	=835
(8dddL	.
8ccc#)	.
8bb	.
(8bbL	.
8aa)	.
8gg	.
=836	=836
(8ggL	.
8ff#)	.
8ee	.
(8eeL	.
8dd)	.
8cc#	.
=837	=837
(8cc#L	.
8b)	.
8ee	.
(8eeL	.
8cc#)	.
8a	.
=838	=838
4dd	.
8r	.
4r	.
8r	.
=839	=839
2.r	.
=840	=840
2.r	.
=841	=841
4r	.
8r	.
4ee	f
8aa	.
=842	=842
(8aaL	.
8gg)	.
8ff#	.
(8ff#L	.
8ee)	.
8dd	.
=843	=843
4cc#	.
8r	.
(4.bb	p
=844	=844
4.aa	.
4.gg	.
=845	=845
4.ff#	.
4.ee	.
=846	=846
4.dd)	.
(4.b	sf
=847	=847
4a)	.
8r	.
(4.bb-	.
=848	=848
4.aa	.
4.gg	.
=849	=849
4.ff	.
4.ee	.
=850	=850
4.dd)	.
(4.b	sf
=851	=851
8aL)	.
(8a	.
8g#	.
8aL)	.
8g#	.
8a	.
=852	=852
8a#L	sf
(8b	.
8a#	.
8bL)	.
8a#	.
8b	.
=853	=853
8cc#L	sf
(8dd	.
8cc#	.
8ddL)	.
8cc#	.
8dd	.
=854	=854
(8dd#L	.
8ee)	.
8ee	.
(8ee#L	.
8ff#)	.
8ff#	.
=855	=855
!LO:TX:t=cresc.	!
(8ff#L	<
8gg)	.
8gg	.
(8gg#L	.
8aa)	.
8aa	.
=856	=856
(8aa#L	.
8bb)	.
8bb	.
(8bb#L	.
8ccc#)	.
8ccc#	.
=857	=857
4ddd	p
8aa	.
(4aa	.
8ddd)	.
=858	=858
4ccc#	.
8aa	.
(4aa	.
8ccc#)	.
=859	=859
4ddd	.
8ddd	.
4ddd#	.
8eee	.
=860	=860
4fff	.
8fff#	.
4ggg	.
8ggg#	.
=861	=861
4aaa	.
8aaa	.
4aa	.
8aa	.
=862	=862
4gg#	.
8ggg	.
4gg#	.
8gg#	.
=863	=863
4ff#	.
8r	.
(8aa#L	.
8bb)	.
8ee	.
=864	=864
(8gg#L	.
8aa)	.
8dd	.
(8ff#L	.
8gg)	.
8cc#	.
=865	=865
4dd	.
8r	.
4r	.
8r	.
=866	=866
2.r	.
=867	=867
8r	.
8r	.
8aa	.
(4aa	.
8ddd)	.
=868	=868
4ccc#	.
8aa	.
(4aa	.
8ccc#)	.
=869	=869
4ddd	.
8r	.
4r	.
8r	.
=870	=870
2.r	.
=871	=871
8r	.
8r	.
8ddd	.
4dd	.
8dd	.
=872	=872
4cc#	.
8ccc	.
4cc	.
8cc	.
=873	=873
4b	.
8bb	.
!LO:TX:t=cresc.	!
4dd	<
8ddd	.
=874	=874
4cc#	.
8ccc#	.
4cc	.
8ccc	.
=875	=875
4b	.
8bb	.
4b-	.
8bb-	.
=876	=876
4a	.
8aa	.
4g#	.
8gg#	.
=877	=877
4g	f
(16cc#	.
16dd)	.
8eeL	.
8cc#	.
8g	.
=878	=878
4f#	f
(16ff#	.
16gg	.
8aaL)	.
8ff#	.
8dd	.
=879	=879
4g	f
(16ee	.
16ff#)	.
8ggL	.
8ee	.
8cc#	.
=880	=880
8gL	.
8e	.
8c#	.
8AL	ff
8A	.
8A	.
=881	=881
4B-	.
8r	.
4r	.
(8dd	p
=882	=882
!LO:TX:t=dol.	!
qqff	.
4ee-	.
8dd	.
4ee-	.
8ff)	.
=883	=883
4dd	.
8r	.
4r	.
(8ddd	.
=884	=884
qqfff	.
4eee-	.
8ddd	.
4eee-	.
8fff)	.
=885	=885
4ddd	.
8r	.
4r	.
(8ddd	.
=886	=886
qqfff	.
4eee-	.
8ddd	.
4eee-	.
8fff)	.
=887	=887
4ddd	.
8fff	pp
4bbb-	.
8r	.
=888	=888
(2.G#	ff
=889	=889
8AL)	.
8d	.
8f#	.
8aL	.
8dd	.
8ff#	.
=890	=890
4aa	.
8r	.
4.cc#t	.
=891	=891
qqb	.
qqcc#	.
4dd	.
8r	.
4r	.
8r	.
=892	=892
(2.A-	ff
=893	=893
8GL)	.
8B-	.
8e-	.
8gL	.
8b-	.
8ee-	.
=894	=894
8BL	.
8d	.
8f	.
8bL	.
8dd	.
8ff	.
=895	=895
8dL	.
8f#	.
8a	.
8ddL	.
8ff#	.
8aa	.
=896	=896
8ggL	.
8ee	.
8cc#	.
8gL	.
8e	.
8c#	.
=897	=897
4d	.
8r	.
8r	.
8cc#	.
8cc#	.
=898	=898
4dd	.
8r	.
8r	.
8gg	.
8gg	.
=899	=899
4ff#	.
8r	.
8r	.
8ccc#	.
8ccc#	.
=900	=900
4ddd	.
8r	.
8r	.
8cc#	.
8cc#	.
=901	=901
8ddL	.
8ff#	.
8aa	.
(4bb	sf
8aa)	.
=902	=902
8ddL	.
8ff#	.
8aa	.
(4bb	sf
8aa)	.
=903	=903
8ddL	p
8ff#	.
8aa	.
(4bb	.
8aa)	.
=904	=904
(4aa	.
8gg)	.
(4gg	.
8ff#)	.
=905	=905
!LO:TX:t=cresc.	!
(4ff#	<
8ee)	.
(4ee	.
8dd)	.
=906	=906
(4dd	.
8cc)	.
(4cc	.
8b)	.
=907	=907
(4b	.
8a)	.
(4a	.
8g#)	.
=908	=908
(4g#	.
8g)	.
(4g	.
8f#)	.
=909	=909
8f#L	[
(8a	.
8g#)	.
8aL	.
(8cc	.
8b)	.
=910	=910
8ccL	.
(8a	.
8g#	.
8aL)	.
(8f#	.
8e#	.
=911	=911
8f#L)	f
(8a	.
8g#	.
8aL)	.
(8cc#	.
8b#)	.
=912	=912
8cc#L	.
(8ff#	.
8ee#	.
8ff#L)	.
(8aa	.
8gg#	.
=913	=913
8aaL)	f
(8ff#	.
8ee#	.
8ff#L)	.
(8aa	.
8gg#)	.
=914	=914
8aaL	f
(8ff#	.
8ee#	.
8ff#L)	.
(8aa	.
8dd#)	.
=915	=915
8eeL	f
(8gg	.
8ff#	.
8ggL)	.
(8ccc#	.
8bb#	.
=916	=916
8ccc#L)	f
(8eee	.
8ddd#	.
8eeeL)	.
(8ggg	.
8fff#	.
=917	=917
2.ggg)	p
=918	=918
2.gg	.
=919	=919
8ff#L	.
(8fff#	.
8eee#)	.
8fff#L	.
8eee#	.
8ddd	.
=920	=920
8ccc#L	.
8bb	.
8aa	.
8ggL	.
8ff#	.
8fff#	.
=921	=921
2.eee	.
=922	=922
2.ee	.
=923	=923
8ddL	.
(8ddd	.
8ccc#	.
8dddL)	.
8ccc#	.
8bb	.
=924	=924
8aaL	.
8gg	.
8ff#	.
8eeL	.
8dd	.
8ddd	.
=925	=925
!LO:TX:t=cresc.	!
8cc#L	<
8ccc#	.
8bb	.
8aaL	.
8gg	.
8ff#	.
=926	=926
8eeL	.
8dd	.
8cc#	.
8bL	.
8bb	.
8aa	.
=927	=927
8ggL	.
8ff#	.
8ee	.
8ddL	.
8cc#	.
8b	.
=928	=928
8aL	.
8aa	.
8gg	.
8ff#L	.
8ee	.
8dd	.
=929	=929
8cc#L	.
8b	.
8a	.
8gL	.
8gg	.
8ff#	.
=930	=930
8eeL	.
(8dd	.
8cc#	.
8ddL)	.
8a	.
8f#	.
=931	=931
2.eT	f
=932	=932
2.eeT	.
=933	=933
2.dd	sf
=934	=934
[2.ddd	sf
=935	=935
4.ddd	.
4ccc#	.
8bb	.
=936	=936
4aa	.
8gg	.
4ff#	.
8ee	.
=937	=937
2.ff#	sf
=938	=938
[2.fff#	sf
=939	=939
4.fff#	.
4eee	.
8ddd	.
=940	=940
4ccc#	.
8bb	.
4aa	.
8gg	.
=941	=941
8ff#L	.
(8dd	.
8cc#	.
8ddL)	.
(8b	.
8a#)	.
=942	=942
8bL	.
(8g	.
8f#	.
8gL)	.
(8e	.
8d#)	.
=943	=943
8eL	.
8f#	.
8g	.
8aL	.
8b	.
8cc#	.
=944	=944
8ddL	.
8ee	.
8ff#	.
4gg	.
8r	.
=945	=945
8r	.
(8ff#	.
8ee#	.
8ff#L)	.
(8dd	.
8cc#	.
=946	=946
8ddL)	.
(8b	.
8a#	.
8bL)	.
(8g	.
8f#	.
=947	=947
8gL)	.
8a	.
8b	.
8cc#L	.
8dd	.
8ee	.
=948	=948
8ff#L	.
8gg	.
8aa	.
8bbL	.
8ccc	.
8ccc#	.
=949	=949
4ddd	ff
8r	.
4r	.
8r	.
=950	=950
4g 4dd 4bb	.
8r	.
4r	.
8r	.
=951	=951
4f# 4dd 4aa	.
8r	.
4r	.
8r	.
=952	=952
4A 4e 4cc#	.
8r	.
4r	.
8r	.
=953	=953
4A 4f# 4dd	.
8r	.
8r	.
(8a	p
8g#	.
=954	=954
[2.a)	.
=955	=955
8a	.
(8dd	.
8ee	.
8ff#L	.
8gg	.
8gg#	.
=956	=956
[2.aa)	.
=957	=957
4aa	.
8r	.
8r	.
(8ddd	.
8ccc#	.
=958	=958
4ddd)	.
8r	.
8r	.
(8dd	.
8cc#	.
=959	=959
4dd)	.
8r	.
8r	.
(8d	pp
8c#	.
=960	=960
4d)	.
8r	.
8r	.
(8d	.
8c#	.
=961	=961
4d)	.
8r	.
4r	.
8r	.
=962	=962
4r	.
8r	.
8r	.
==	==
*-	*-
